modules/hawcons-filled/icons/icon-79-document-cancel.svg

<?xml version="1.0" encoding="UTF-8" standalone="no"?>
<svg width="32px" height="32px" viewBox="0 0 32 32" version="1.1" xmlns="http://www.w3.org/2000/svg" xmlns:xlink="http://www.w3.org/1999/xlink" xmlns:sketch="http://www.bohemiancoding.com/sketch/ns">
    <!-- Generator: Sketch 3.0.3 (7891) - http://www.bohemiancoding.com/sketch -->
    <title>icon 79 document cancel</title>
    <desc>Created with Sketch.</desc>
    <defs></defs>
    <g id="Page-1" stroke="none" stroke-width="1" fill="none" fill-rule="evenodd" sketch:type="MSPage">
        <g id="icon-79-document-cancel" sketch:type="MSArtboardGroup" fill="#929292">
            <path d="M21.5,26.2071068 L19.3786797,28.3284271 L18.6715729,27.6213203 L20.7928932,25.5 L18.6715729,23.3786797 L19.3786797,22.6715729 L21.5,24.7928932 L23.6213203,22.6715729 L24.3284271,23.3786797 L22.2071068,25.5 L24.3284271,27.6213203 L23.6213203,28.3284271 L21.5,26.2071068 L21.5,26.2071068 Z M16.0218178,29 L6.99742191,29 C5.89092539,29 5,28.1012878 5,26.9926701 L5,4.00732994 C5,2.89833832 5.8992496,2 7.0085302,2 L17,2 L17,8.00189865 C17,9.11329365 17.8980806,10 19.0059191,10 L24,10 L24,19.4981633 C23.2304079,19.1772281 22.3859009,19 21.5,19 C17.9101489,19 15,21.9101489 15,25.5 C15,26.7886423 15.3749964,27.9896995 16.0218178,29 L16.0218178,29 L16.0218178,29 Z M18,2 L18,7.99707067 C18,8.55097324 18.4509752,9 18.990778,9 L24,9 L18,2 L18,2 Z M21.5,31 C24.5375663,31 27,28.5375663 27,25.5 C27,22.4624337 24.5375663,20 21.5,20 C18.4624337,20 16,22.4624337 16,25.5 C16,28.5375663 18.4624337,31 21.5,31 L21.5,31 Z" id="document-cancel" sketch:type="MSShapeGroup"></path>
        </g>
    </g>
</svg>

<svg width="32" height="32" viewBox="0 0 32 32" xmlns="http://www.w3.org/2000/svg"><path d="M21.5 26.207l-2.121 2.121-.707-.707 2.12-2.121-2.12-2.121.707-.707 2.121 2.12 2.121-2.12.707.707-2.12 2.121 2.12 2.121-.707.707-2.121-2.12zM16.022 29H6.997A2 2 0 0 1 5 26.993V4.007C5 2.898 5.9 2 7.009 2H17v6.002C17 9.113 17.898 10 19.006 10H24v9.498A6.5 6.5 0 0 0 16.022 29zM18 2v5.997c0 .554.451 1.003.99 1.003H24l-6-7zm3.5 29a5.5 5.5 0 1 0 0-11 5.5 5.5 0 0 0 0 11z" fill="#929292" fill-rule="evenodd"/></svg>
